src/images/single-assets/HPC.svg

<svg xmlns="http://www.w3.org/2000/svg" width="512" height="512" fill="none"><circle cx="256" cy="256" r="256" fill="#00226B"/><circle cx="255.999" cy="256.316" r="249.679" fill="url(#a)"/><circle cx="255.685" cy="255.998" r="237.037" fill="url(#b)"/><circle cx="256.001" cy="256.318" r="230.716" fill="#fff"/><path fill="#D9D9D9" fill-rule="evenodd" d="M371.201 228.821c-3.783 0-7.479-.437-11.056-1.272a62 62 0 0 0 11.056 1.272M151.858 227.549a48.6 48.6 0 0 1-11.057 1.272 62 62 0 0 0 11.057-1.272" clip-rule="evenodd"/><path fill="#36C2F1" d="M140.801 228.821c-31.506 0-57.047-30.351-57.047-67.792s25.541-67.793 57.047-67.793 57.047 30.352 57.047 67.793c0 32.945-19.776 60.402-45.99 66.52 43.157-8.988 71.449-63.883 53.891-134.313-5.871-23.102-11.088-35.202-22.439-55.95C91.506 67.738 25.285 154.295 25.285 256.318c0 10.995.77 21.81 2.257 32.395 38.04-43.931 82.128-52.465 113.259-59.892M428.248 161.029c0 37.441-25.541 67.792-57.047 67.792 31.131 7.427 75.22 15.961 113.26 59.892a233 233 0 0 0 2.256-32.395c0-102.023-66.221-188.58-158.024-219.032-11.352 20.748-16.568 32.848-22.44 55.95-17.557 70.43 10.734 125.325 53.892 134.313-26.215-6.118-45.991-33.575-45.991-66.52 0-37.441 25.541-67.793 57.047-67.793s57.047 30.352 57.047 67.793"/><path fill="#0D0D17" d="M83.754 161.029c0 37.441 25.541 67.792 57.047 67.792a62 62 0 0 0 11.057-1.272c26.214-6.118 45.99-33.575 45.99-66.52 0-37.441-25.541-67.793-57.047-67.793s-57.047 30.352-57.047 67.793M371.201 228.821c31.506 0 57.047-30.351 57.047-67.792s-25.541-67.793-57.047-67.793-57.047 30.352-57.047 67.793c0 32.945 19.776 60.402 45.991 66.52a62 62 0 0 0 11.056 1.272"/><ellipse cx="140.013" cy="128.316" fill="#fff" rx="33.185" ry="28.128"/><circle cx="100.665" cy="132.899" r="4.267" fill="#fff"/><ellipse cx="111.725" cy="154.232" fill="#fff" rx="3.002" ry="2.528"/><ellipse cx="177.148" cy="134.319" fill="#fff" rx="1.738" ry="1.58"/><circle cx="146.649" cy="196.266" r="10.114" fill="#fff"/><ellipse cx="122.157" cy="191.843" fill="#fff" rx="4.583" ry="4.425"/><ellipse cx="137.01" cy="211.91" fill="#fff" rx="7.111" ry="5.215"/><ellipse cx="371.677" cy="127.999" fill="#fff" rx="33.185" ry="28.128"/><circle cx="411.341" cy="133.212" r="4.267" fill="#fff"/><ellipse cx="399.963" cy="154.232" fill="#fff" rx="3.002" ry="2.528"/><ellipse cx="334.859" cy="134.319" fill="#fff" rx="1.738" ry="1.58"/><circle cx="379.895" cy="196.582" r="10.114" fill="#fff"/><ellipse cx="353.821" cy="191.843" fill="#fff" rx="4.583" ry="4.425"/><ellipse cx="371.517" cy="212.227" fill="#fff" rx="7.111" ry="5.215"/><path fill="#97C1D2" d="m112.199 286.182 7.585-7.111.949-1.106c-.258.613-.386.963-.23 1.824.072.389 1.02 1.18 4.338 3.707s29.235 16.435 50.884 20.859c18.103 2.621 26.78 2.128 41.087-.316 13.401-3.231 19.762-6.343 30.024-13.116.474-.632-.316-1.264.316-1.106l3.319.316v3.16l-2.213 12.642-8.533 9.324-18.015 8.375h-34.607l-30.499-6.005-18.331-7.901-15.96-11.22-7.901-9.007zM399.645 286.182l-7.586-7.111-.948-1.106c.258.613.386.963.23 1.824-.072.389-1.02 1.18-4.338 3.707s-29.235 16.435-50.884 20.859c-18.103 2.621-26.78 2.128-41.087-.316-13.401-3.231-19.763-6.343-30.024-13.116-.475-.632.316-1.264-.317-1.106l-3.318.316v3.16l2.212 12.642 8.534 9.324 18.014 8.375h34.608l30.499-6.005 18.33-7.901 15.961-11.22 7.901-9.007z"/><path fill="#D9D9D9" fill-opacity=".51" fill-rule="evenodd" d="M231.031 284.834a203 203 0 0 0 5.553 2.242 65 65 0 0 1-5.553-2.242M280.972 284.834a206 206 0 0 1-5.553 2.242 65 65 0 0 0 5.553-2.242" clip-rule="evenodd"/><path fill="#0D0D17" d="M103.668 292.819c4.425 15.328 15.96 40.296 22.439 53.096 24.654 51.311 68.036 109.332 125.457 109.353 3.427.143 5.396.187 8.859 0 57.418-.025 100.819-58.044 125.472-109.353 6.479-12.8 18.015-37.768 22.439-53.096l.038-.088c.438-1.026.488-1.142 2.333.088 3.424 2.277 10.596 7.427 12.8 7.111 1.747-.474 2.923-1.337 3.318-2.054.474-.86.633-2.529.486-3.635-.217-1.682-3.957-8.691-9.651-13.59-10.425-8.85-17.22-10.43-22.593-10.272-4.108 0-5.846 3.161-5.688 5.215.065.445.158.948.474 1.264 1.58 2.371 4.424 4.899 7.743 8.218.424.516.652.811.632 1.58-.085.564-.319 1.017-1.264 2.212a66 66 0 0 1-1.897 2.212c-3.787 4.024-6.124 6.293-11.693 10.43-6.803 4.69-10.789 6.874-18.015 10.114-9.181 3.951-14.629 5.496-24.652 7.743-13.295 2.129-21.037 2.91-35.714 2.686-19.595-1.58-27.022-5.056-33.501-10.113-5.531-4.583-7.743-12.168-8.375-19.911.12-.452.238-.699.79-1.107.872-.609 1.419-.936 3.16-1.264 2.806-.638 5.132-1.351 8.354-2.582a206 206 0 0 0 5.553-2.242c21.774-9.977 36.661-32.795 36.661-48.43 0-21.121-27.423-36.662-61.634-36.662a111 111 0 0 0-6.325.18c-31.203 1.785-55.305 16.681-55.305 36.482 0 15.635 14.888 38.453 36.662 48.43a203 203 0 0 0 5.553 2.242c3.221 1.231 5.548 1.944 8.353 2.582.966.182 1.564.363 2.054.593.394.185.718.4 1.106.671.552.408.671.655.791 1.107-.633 7.743-2.845 15.328-8.376 19.911-6.479 5.057-13.906 8.533-33.501 10.113-14.676.224-22.419-.557-35.714-2.686-10.023-2.247-15.47-3.792-24.651-7.743-7.227-3.24-11.212-5.424-18.015-10.114-5.57-4.137-7.907-6.406-11.694-10.43a65 65 0 0 1-1.896-2.212c-.946-1.195-1.18-1.648-1.265-2.212-.02-.769.208-1.064.633-1.58 2.108-2.109 4.025-3.899 5.548-5.531.874-.937 1.619-1.823 2.195-2.687.316-.316.409-.819.474-1.264.158-2.054-1.58-5.215-5.689-5.215-5.373-.158-12.168 1.422-22.593 10.272-5.693 4.899-9.433 11.908-9.65 13.59-.147 1.106.011 2.775.485 3.635.395.717 1.571 1.58 3.319 2.054 2.203.316 9.375-4.834 12.8-7.111 1.896-1.264 1.896-1.106 2.37 0"/><path fill="#F59393" d="M233.18 374.882c8.059.632 15.802 3.002 20.543 6.005.916.749 1.569 1.104 2.212 1.086v61.017c-22.755-.316-46.301-11.219-56.573-23.545-8.059-10.114-9.797-18.647-7.585-26.548 3.161-7.902 10.904-13.116 22.756-16.119 7.335-1.681 11.396-2.095 18.647-1.896M258.15 380.89c4.741-3.003 12.484-5.373 20.543-6.005 7.251-.199 11.312.215 18.647 1.896 11.852 3.003 19.595 8.217 22.756 16.119 2.212 7.901.474 16.434-7.586 26.548-10.271 12.326-33.817 23.229-56.572 23.546v-61.017c.643.017 1.296-.338 2.212-1.087"/><path fill="#0D0D17" d="M194.056 455.459c-.474 0-1.58.948-1.896 2.054 1.469 5.124 8.533 9.257 17.067 13.083 2.498 1.12 13.723 5.507 25.442 5.406 2.607.03 3.923-.301 6.163-1.264 1.58-.632 2.389-1.794 2.528-3.002.043-1.305-.198-1.859-1.422-2.529-18.894-2.702-28.713-5.281-41.403-12.01-3.49-1.364-5.149-1.919-6.479-1.738M317.951 455.459c.474 0 1.581.948 1.897 2.054-1.469 5.124-8.534 9.257-17.067 13.083-2.499 1.12-13.723 5.507-25.442 5.406-2.607.03-3.923-.301-6.163-1.264-1.58-.632-2.389-1.794-2.528-3.002-.043-1.305.198-1.859 1.422-2.529 18.894-2.702 28.713-5.281 41.402-12.01 3.491-1.364 5.15-1.919 6.479-1.738"/><path fill="#fff" d="M222.526 212.356c0-2.952 15.058-5.344 33.633-5.344s33.634 2.392 33.634 5.344c0 .458.315 1.328-1.264 1.444-8.334.614-17.053 3.01-18.474 3.299-10.983 1.716-17.031 1.726-27.791 0-1.421-.289-10.141-2.685-18.475-3.299-1.579-.116-1.263-.986-1.263-1.444M237.325 240.322c-1.061 2.957-5.872 3.936-10.744 2.187s-7.961-5.565-6.899-8.522 4.594.368 9.466 2.117c4.873 1.75 9.239 1.261 8.177 4.218M276.464 240.322c1.061 2.957 5.872 3.936 10.744 2.187s7.961-5.565 6.899-8.522-4.594.368-9.466 2.117-9.239 1.261-8.177 4.218"/><defs><linearGradient id="a" x1="255.999" x2="255.999" y1="6.637" y2="505.995" gradientUnits="userSpaceOnUse"><stop stop-color="#36C2F1"/><stop offset=".47" stop-color="#D9F5FF"/><stop offset="1" stop-color="#36C2F1"/></linearGradient><linearGradient id="b" x1="255.685" x2="255.685" y1="18.961" y2="493.035" gradientUnits="userSpaceOnUse"><stop stop-color="#01384A"/><stop offset=".495" stop-color="#00ABE6"/><stop offset="1" stop-color="#4F93AB"/></linearGradient></defs></svg>

<svg width="512" height="512" viewBox="0 0 512 512" fill="none" xmlns="http://www.w3.org/2000/svg">
<circle cx="256" cy="256" r="256" fill="#00226B"/>
<circle cx="255.999" cy="256.316" r="249.679" fill="url(#paint0_linear_3649_304)"/>
<circle cx="255.685" cy="255.998" r="237.037" fill="url(#paint1_linear_3649_304)"/>
<circle cx="256.001" cy="256.318" r="230.716" fill="white"/>
<path fill-rule="evenodd" clip-rule="evenodd" d="M371.201 228.821C367.418 228.821 363.722 228.384 360.145 227.549C363.733 228.296 367.425 228.726 371.201 228.821Z" fill="#D9D9D9"/>
<path fill-rule="evenodd" clip-rule="evenodd" d="M151.858 227.549C148.281 228.384 144.584 228.821 140.801 228.821C144.578 228.726 148.269 228.296 151.858 227.549Z" fill="#D9D9D9"/>
<path d="M140.801 228.821C109.295 228.821 83.7543 198.47 83.7543 161.029C83.7543 123.588 109.295 93.2361 140.801 93.2361C172.307 93.2361 197.848 123.588 197.848 161.029C197.848 193.974 178.072 221.431 151.858 227.549C195.015 218.561 223.307 163.666 205.749 93.2361C199.878 70.1338 194.661 58.0336 183.31 37.2863C91.5059 67.7383 25.2852 154.295 25.2852 256.318C25.2852 267.313 26.0543 278.128 27.5416 288.713C65.5815 244.782 109.67 236.248 140.801 228.821Z" fill="#36C2F1"/>
<path d="M428.248 161.029C428.248 198.47 402.707 228.821 371.201 228.821C402.332 236.248 446.421 244.782 484.461 288.713C485.948 278.128 486.717 267.313 486.717 256.318C486.717 154.295 420.496 67.7383 328.693 37.2863C317.341 58.0336 312.125 70.1338 306.253 93.2361C288.696 163.666 316.987 218.561 360.145 227.549C333.93 221.431 314.154 193.974 314.154 161.029C314.154 123.588 339.695 93.2361 371.201 93.2361C402.707 93.2361 428.248 123.588 428.248 161.029Z" fill="#36C2F1"/>
<path d="M83.7543 161.029C83.7543 198.47 109.295 228.821 140.801 228.821C144.578 228.726 148.269 228.296 151.858 227.549C178.072 221.431 197.848 193.974 197.848 161.029C197.848 123.588 172.307 93.2361 140.801 93.2361C109.295 93.2361 83.7543 123.588 83.7543 161.029Z" fill="#0D0D17"/>
<path d="M371.201 228.821C402.707 228.821 428.248 198.47 428.248 161.029C428.248 123.588 402.707 93.2361 371.201 93.2361C339.695 93.2361 314.154 123.588 314.154 161.029C314.154 193.974 333.93 221.431 360.145 227.549C363.733 228.296 367.425 228.726 371.201 228.821Z" fill="#0D0D17"/>
<ellipse cx="140.013" cy="128.316" rx="33.1852" ry="28.1284" fill="white"/>
<circle cx="100.665" cy="132.899" r="4.26667" fill="white"/>
<ellipse cx="111.725" cy="154.232" rx="3.00247" ry="2.5284" fill="white"/>
<ellipse cx="177.148" cy="134.319" rx="1.73827" ry="1.58025" fill="white"/>
<circle cx="146.649" cy="196.266" r="10.1136" fill="white"/>
<ellipse cx="122.157" cy="191.843" rx="4.58272" ry="4.42469" fill="white"/>
<ellipse cx="137.01" cy="211.91" rx="7.11111" ry="5.21481" fill="white"/>
<ellipse cx="371.677" cy="127.999" rx="33.1852" ry="28.1284" fill="white"/>
<circle cx="411.341" cy="133.212" r="4.26667" fill="white"/>
<ellipse cx="399.963" cy="154.232" rx="3.00247" ry="2.5284" fill="white"/>
<ellipse cx="334.859" cy="134.319" rx="1.73827" ry="1.58025" fill="white"/>
<circle cx="379.895" cy="196.582" r="10.1136" fill="white"/>
<ellipse cx="353.821" cy="191.843" rx="4.58272" ry="4.42469" fill="white"/>
<ellipse cx="371.517" cy="212.227" rx="7.11111" ry="5.21481" fill="white"/>
<path d="M112.199 286.182L119.784 279.071L120.733 277.965C120.475 278.578 120.347 278.928 120.503 279.789C120.575 280.178 121.523 280.969 124.841 283.496C128.16 286.023 154.076 299.931 175.725 304.355C193.828 306.976 202.505 306.483 216.812 304.039C230.213 300.808 236.574 297.696 246.836 290.923C247.31 290.291 246.52 289.659 247.152 289.817L250.471 290.133V293.293L248.258 305.935L239.725 315.259L221.71 323.634H187.103L156.604 317.629L138.273 309.728L122.313 298.508L114.412 289.501L112.199 286.182Z" fill="#97C1D2"/>
<path d="M399.645 286.182L392.059 279.071L391.111 277.965C391.369 278.578 391.497 278.928 391.341 279.789C391.269 280.178 390.321 280.969 387.003 283.496C383.684 286.023 357.768 299.931 336.119 304.355C318.016 306.976 309.339 306.483 295.032 304.039C281.631 300.808 275.269 297.696 265.008 290.923C264.533 290.291 265.324 289.659 264.691 289.817L261.373 290.133V293.293L263.585 305.935L272.119 315.259L290.133 323.634H324.741L355.24 317.629L373.57 309.728L389.531 298.508L397.432 289.501L399.645 286.182Z" fill="#97C1D2"/>
<path fill-rule="evenodd" clip-rule="evenodd" d="M231.031 284.834C233.205 285.741 235.002 286.471 236.584 287.076C234.691 286.412 232.838 285.662 231.031 284.834Z" fill="#D9D9D9" fill-opacity="0.51"/>
<path fill-rule="evenodd" clip-rule="evenodd" d="M280.972 284.834C278.797 285.741 277 286.471 275.419 287.076C277.312 286.412 279.164 285.662 280.972 284.834Z" fill="#D9D9D9" fill-opacity="0.51"/>
<path d="M103.668 292.819C108.093 308.147 119.628 333.115 126.107 345.915C150.761 397.226 194.143 455.247 251.564 455.268C254.991 455.411 256.96 455.455 260.423 455.268C317.841 455.243 361.242 397.224 385.895 345.915C392.374 333.115 403.91 308.147 408.334 292.819L408.372 292.731C408.81 291.705 408.86 291.589 410.705 292.819C414.129 295.096 421.301 300.246 423.505 299.93C425.252 299.456 426.428 298.593 426.823 297.876C427.297 297.016 427.456 295.347 427.309 294.241C427.092 292.559 423.352 285.55 417.658 280.651C407.233 271.801 400.438 270.221 395.065 270.379C390.957 270.379 389.219 273.54 389.377 275.594C389.442 276.039 389.535 276.542 389.851 276.858C391.431 279.229 394.275 281.757 397.594 285.076C398.018 285.592 398.246 285.887 398.226 286.656C398.141 287.22 397.907 287.673 396.962 288.868C396.221 289.768 395.818 290.232 395.065 291.08C391.278 295.104 388.941 297.373 383.372 301.51C376.569 306.2 372.583 308.384 365.357 311.624C356.176 315.575 350.728 317.12 340.705 319.367C327.41 321.496 319.668 322.277 304.991 322.053C285.396 320.473 277.969 316.997 271.49 311.94C265.959 307.357 263.747 299.772 263.115 292.029C263.235 291.577 263.353 291.33 263.905 290.922C264.777 290.313 265.324 289.986 267.065 289.658C269.871 289.02 272.197 288.307 275.419 287.076C277 286.471 278.797 285.741 280.972 284.834C302.746 274.857 317.633 252.039 317.633 236.404C317.633 215.283 290.21 199.742 255.999 199.742C254.129 199.742 252.28 199.789 250.455 199.88C250.194 199.893 249.933 199.907 249.674 199.922C218.471 201.707 194.369 216.603 194.369 236.404C194.369 252.039 209.257 274.857 231.031 284.834C233.205 285.741 235.002 286.471 236.584 287.076C239.805 288.307 242.132 289.02 244.937 289.658C245.903 289.84 246.501 290.021 246.991 290.251C247.385 290.436 247.709 290.651 248.097 290.922C248.649 291.33 248.768 291.577 248.888 292.029C248.255 299.772 246.043 307.357 240.512 311.94C234.033 316.997 226.606 320.473 207.011 322.053C192.335 322.277 184.592 321.496 171.297 319.367C161.274 317.12 155.827 315.575 146.646 311.624C139.419 308.384 135.434 306.2 128.631 301.51C123.061 297.373 120.724 295.104 116.937 291.08C116.184 290.232 115.781 289.768 115.041 288.868C114.095 287.673 113.861 287.22 113.776 286.656C113.756 285.887 113.984 285.592 114.409 285.076C116.517 282.967 118.434 281.177 119.957 279.545C120.831 278.608 121.576 277.722 122.152 276.858C122.468 276.542 122.561 276.039 122.626 275.594C122.784 273.54 121.046 270.379 116.937 270.379C111.564 270.221 104.769 271.801 94.3444 280.651C88.6505 285.55 84.9107 292.559 84.6932 294.241C84.5468 295.347 84.7053 297.016 85.179 297.876C85.5744 298.593 86.7503 299.456 88.4975 299.93C90.7009 300.246 97.8734 295.096 101.298 292.819C103.194 291.555 103.194 291.713 103.668 292.819Z" fill="#0D0D17"/>
<path d="M233.18 374.882C241.239 375.514 248.982 377.884 253.723 380.887C254.639 381.636 255.292 381.991 255.935 381.973V442.99C233.18 442.674 209.634 431.771 199.362 419.445C191.303 409.331 189.565 400.798 191.777 392.897C194.938 384.995 202.681 379.781 214.533 376.778C221.868 375.097 225.929 374.683 233.18 374.882Z" fill="#F59393"/>
<path d="M258.15 380.89C262.891 377.887 270.634 375.517 278.693 374.885C285.944 374.686 290.005 375.1 297.34 376.781C309.192 379.784 316.935 384.998 320.096 392.9C322.308 400.801 320.57 409.334 312.51 419.448C302.239 431.774 278.693 442.677 255.938 442.994V381.977C256.581 381.994 257.234 381.639 258.15 380.89Z" fill="#F59393"/>
<path d="M194.056 455.459C193.582 455.459 192.476 456.407 192.16 457.513C193.629 462.637 200.693 466.77 209.227 470.596C211.725 471.716 222.95 476.103 234.669 476.002C237.276 476.032 238.592 475.701 240.832 474.738C242.412 474.106 243.221 472.944 243.36 471.736C243.403 470.431 243.162 469.877 241.938 469.207C223.044 466.505 213.225 463.926 200.535 457.197C197.045 455.833 195.386 455.278 194.056 455.459Z" fill="#0D0D17"/>
<path d="M317.951 455.459C318.425 455.459 319.532 456.407 319.848 457.513C318.379 462.637 311.314 466.77 302.781 470.596C300.282 471.716 289.058 476.103 277.339 476.002C274.732 476.032 273.416 475.701 271.176 474.738C269.596 474.106 268.787 472.944 268.648 471.736C268.605 470.431 268.846 469.877 270.07 469.207C288.964 466.505 298.783 463.926 311.472 457.197C314.963 455.833 316.622 455.278 317.951 455.459Z" fill="#0D0D17"/>
<path d="M222.526 212.356C222.526 209.404 237.584 207.012 256.159 207.012C274.734 207.012 289.793 209.404 289.793 212.356C289.793 212.814 290.108 213.684 288.529 213.8C280.195 214.414 271.476 216.81 270.055 217.099C259.072 218.815 253.024 218.825 242.264 217.099C240.843 216.81 232.123 214.414 223.789 213.8C222.21 213.684 222.526 212.814 222.526 212.356Z" fill="white"/>
<path d="M237.325 240.322C236.264 243.279 231.453 244.258 226.581 242.509C221.709 240.76 218.62 236.944 219.682 233.987C220.744 231.03 224.276 234.355 229.148 236.104C234.021 237.854 238.387 237.365 237.325 240.322Z" fill="white"/>
<path d="M276.464 240.322C277.525 243.279 282.336 244.258 287.208 242.509C292.08 240.76 295.169 236.944 294.107 233.987C293.045 231.03 289.513 234.355 284.641 236.104C279.769 237.854 275.402 237.365 276.464 240.322Z" fill="white"/>
<defs>
<linearGradient id="paint0_linear_3649_304" x1="255.999" y1="6.63672" x2="255.999" y2="505.995" gradientUnits="userSpaceOnUse">
<stop stop-color="#36C2F1"/>
<stop offset="0.47" stop-color="#D9F5FF"/>
<stop offset="1" stop-color="#36C2F1"/>
</linearGradient>
<linearGradient id="paint1_linear_3649_304" x1="255.685" y1="18.9609" x2="255.685" y2="493.035" gradientUnits="userSpaceOnUse">
<stop stop-color="#01384A"/>
<stop offset="0.495" stop-color="#00ABE6"/>
<stop offset="1" stop-color="#4F93AB"/>
</linearGradient>
</defs>
</svg>
